share/icons/Flat-Remix-Blue-Dark/mimetypes/scalable/text-x-emacs-lisp.svg

<svg xmlns="http://www.w3.org/2000/svg" xmlns:xlink="http://www.w3.org/1999/xlink" width="36pt" height="36pt" version="1.1" viewBox="0 0 36 36"> <defs> <clipPath id="clip1"> <path d="M 20 2 L 31 2 L 31 13 L 20 13 Z M 20 2"/> </clipPath> <clipPath id="clip2"> <path d="M 20.515625 2.625 L 30.328125 12.4375 L 22.023438 12.4375 C 21.292969 12.4375 20.515625 11.660156 20.515625 10.929688 Z M 20.515625 2.625"/> </clipPath> <image id="image6" width="36" height="36" xlink:href="data:image/png;base64,iVBORw0KGgoAAAANSUhEUgAAACQAAAAkCAYAAADhAJiYAAAABmJLR0QA/wD/AP+gvaeTAAAAmklEQVRYhe3T0QqCQBBG4aOtYEoUvf9Lildltl00C4tkbBeTIP+BAUEYP1YW1Pcqh53B9kbgaVPcwQF0tAmGSrMZ6AKcDQXw+AUVHEAtcAUaewYYgYmC3+cBCkAPnDJQMcoDVNnebgEqQnmAclTz4d0I3P4JStc9AjXvk4qLWQV53LLeEOl05gw4A3dgcPiuUkoppZRSSqk99gLWvSJpuDnlsAAAAABJRU5ErkJggg=="/> </defs> <g> <path style="fill:rgb(54.901%,25.882%,67.058%)" d="M 7.347656 3.152344 C 6.675781 3.152344 6.042969 3.785156 6.042969 4.457031 L 6.042969 31.847656 C 6.042969 32.480469 6.714844 33.152344 7.347656 33.152344 L 28.21875 33.152344 C 28.851562 33.152344 29.523438 32.480469 29.523438 31.847656 L 29.523438 11.632812 L 21.042969 3.152344 Z M 7.347656 3.152344"/> <g clip-path="url(#clip1)"> <g clip-path="url(#clip2)"> <use xlink:href="#image6"/> </g> </g> <path style="fill:rgb(68.235%,47.843%,76.862%)" d="M 21.042969 3.152344 L 29.523438 11.632812 L 22.347656 11.632812 C 21.714844 11.632812 21.042969 10.960938 21.042969 10.328125 Z M 21.042969 3.152344"/> <path style="fill-rule:evenodd;fill:rgb(100.000%,100.000%,100.000%)" d="M 14.359375 26.800781 C 15.980469 27.183594 17.679688 27.164062 19.359375 27.203125 C 19.359375 27.203125 20.828125 27.152344 21.636719 27.011719 C 22.480469 26.859375 22.957031 26.691406 23.210938 26.375 C 23.21875 26.300781 23.332031 26.058594 22.992188 25.839844 C 22.128906 25.285156 21.035156 25.160156 18.898438 24.734375 C 16.535156 24.230469 15.816406 23.695312 15.453125 23.296875 C 15.105469 22.902344 15.472656 22.042969 17.34375 21.5625 C 18.292969 21.296875 21.847656 21.128906 21.847656 21.128906 C 20.800781 20.359375 18.832031 18.980469 18.429688 18.6875 C 18.078125 18.429688 17.511719 18.035156 17.4375 17.667969 C 17.34375 17.308594 17.90625 17.117188 18.207031 17.085938 C 19.730469 17.011719 20.988281 17.128906 22.390625 17.320312 C 23.234375 17.328125 23.875 16.863281 23.808594 15.941406 C 23.765625 15.003906 22.800781 14.28125 21.753906 14.285156 C 20.769531 14.289062 18.355469 14.542969 18.355469 14.542969 C 21.199219 15.023438 21.664062 15.15625 21.824219 15.488281 C 21.035156 16.234375 19.628906 15.816406 18.320312 15.722656 C 16.660156 15.527344 15.5 15.332031 15.019531 16 C 14.707031 16.433594 15.101562 16.945312 15.257812 17.242188 C 16.210938 18.664062 17.582031 19.402344 18.972656 20.257812 C 16.382812 19.648438 14.347656 20.113281 13.070312 20.835938 C 11.609375 21.769531 11.914062 23.246094 14.335938 24.550781 C 15.757812 25.320312 16.683594 25.652344 18.765625 25.890625 C 20.117188 26.058594 20.316406 26.136719 20.3125 26.25 C 20.304688 26.40625 18.734375 26.519531 18.304688 26.566406 C 17.207031 26.679688 14.371094 26.796875 14.355469 26.796875"/> </g> </svg>

<svg width="36pt" height="36pt" version="1.1" viewBox="0 0 36 36" xmlns="http://www.w3.org/2000/svg"><defs><filter id="a" x="-.192" y="-.192" width="1.384" height="1.384" color-interpolation-filters="sRGB"><feGaussianBlur stdDeviation="0.67843748"/></filter></defs><path d="m7.3477 3.9022c-0.67188 0-1.3047 0.63281-1.3047 1.3047v27.391c0 0.63281 0.67188 1.3047 1.3047 1.3047h20.871c0.63281 0 1.3047-0.67188 1.3047-1.3047v-20.215l-8.4805-8.4805z" opacity=".3"/><path d="m7.3477 3.1523c-0.67188 0-1.3047 0.63281-1.3047 1.3047v27.391c0 0.63281 0.67188 1.3047 1.3047 1.3047h20.871c0.63281 0 1.3047-0.67188 1.3047-1.3047v-20.215l-8.4805-8.4805z" fill="#8b41aa"/><path d="m20.668 3.5272 8.4805 8.4805h-7.1758c-0.63281 0-1.3047-0.67187-1.3047-1.3047z" filter="url(#a)" opacity=".2"/><path d="m21.043 3.1523 8.4805 8.4805h-7.1758c-0.63281 0-1.3047-0.67187-1.3047-1.3047z" fill="#ad79c3"/><path d="m14.359 26.801c1.6211 0.38281 3.3203 0.36328 5 0.40234 0 0 1.4688-0.050781 2.2773-0.19141 0.84375-0.15234 1.3203-0.32031 1.5742-0.63672 0.007812-0.074219 0.12109-0.31641-0.21875-0.53516-0.86328-0.55469-1.957-0.67969-4.0938-1.1055-2.3633-0.50391-3.082-1.0391-3.4453-1.4375-0.34766-0.39453 0.019531-1.2539 1.8906-1.7344 0.94922-0.26562 4.5039-0.43359 4.5039-0.43359-1.0469-0.76953-3.0156-2.1484-3.418-2.4414-0.35156-0.25781-0.91797-0.65234-0.99219-1.0195-0.09375-0.35938 0.46875-0.55078 0.76953-0.58203 1.5234-0.074219 2.7812 0.042968 4.1836 0.23437 0.84375 0.007813 1.4844-0.45703 1.418-1.3789-0.042969-0.9375-1.0078-1.6602-2.0547-1.6562-0.98438 0.003906-3.3984 0.25781-3.3984 0.25781 2.8438 0.48047 3.3086 0.61328 3.4688 0.94531-0.78906 0.74609-2.1953 0.32812-3.5039 0.23438-1.6602-0.19531-2.8203-0.39062-3.3008 0.27734-0.3125 0.43359 0.082031 0.94531 0.23828 1.2422 0.95313 1.4219 2.3242 2.1602 3.7148 3.0156-2.5898-0.60937-4.625-0.14453-5.9023 0.57813-1.4609 0.93359-1.1562 2.4102 1.2656 3.7148 1.4219 0.76953 2.3477 1.1016 4.4297 1.3398 1.3516 0.16797 1.5508 0.24609 1.5469 0.35938-0.007812 0.15625-1.5781 0.26953-2.0078 0.31641-1.0977 0.11328-3.9336 0.23047-3.9492 0.23047" fill="#fff" fill-rule="evenodd"/></svg>
